X: 138
T: Stack of Barley
T: Reel, G
L: 1/16
M: C|
K: G
|: B2d2| e4e2d2 B2c2d2B2| A4A2G2 A2c2B2A2| G2F2G2A2 B2A2B2d2| e4A4 A4g2f2| 
e4e2d2 B2c2d2B2| A4A2G2 A2c2B2A2| G2F2G2A2 B2d2A2c2| B4G4 G4:| 
|: A4| B2G2B2d2 g4f2g2| a2g2f2g2 e2d2B2c2| d2g2f2g2 e2d2c2B2| c4A4 A4f2g2| 
a2g2f2a2 g2e2d2B2| A4A2G2 A2c2B2A2| G2F2G2A2 B2d2A2c2| B4G4 G4:| 
D: Wendy MacIsaac, That's What You Get, WMT004
